logo.svg

<svg xmlns="http://www.w3.org/2000/svg" width="250" height="38" viewBox="0 0 250 38">
<path fill="#366fa5" class="prxLogo" d="M1.53 1.15c1.48 1.49 4.3 2.3 4.26 4.74.25 4.09.16 8.21-.51 12.26-.82.3-1.64.61-2.46.92 4.06 2.72 3.07 7.85 2.98 12.02.02 2.45-2.81 3.3-4.31 4.8 6.36-.64 12.73-1.2 19.08-1.95-1.62-.65-3.25-1.28-4.88-1.91l-.03-8.88c7.7-1.05 16.3 1.18 23.21-3.26 3.13-1.76 5.17-5.79 3.34-9.19-2.68-4.6-8.19-6.59-13.25-6.99-9.15-.76-18.29-1.66-27.43-2.56zm14.12 8.48c5.5.46 11.15.03 16.54 1.28 2.55.72 2.2 4.36-.33 4.79-5.36.57-10.79-.03-16.18.16l-.03-6.23z"/>
<path fill="#366fa5" class="prxLogo" d="M 42.720703 4.8203125 C 44.380703 5.6303125 46.039219 6.4304688 47.699219 7.2304688 C 47.739219 10.180469 47.869688 13.120547 47.679688 16.060547 C 47.879688 17.740547 46.109844 18.340234 45.089844 19.240234 C 49.219844 21.190234 47.400703 26.169062 47.720703 29.789062 C 46.060703 30.579062 44.390469 31.360156 42.730469 32.160156 C 49.370469 31.820156 56.020625 31.519219 62.640625 30.949219 C 61.030625 30.359219 59.409063 29.790703 57.789062 29.220703 C 57.789062 26.730703 57.799844 24.230234 57.839844 21.740234 C 62.869844 21.860234 65.789844 26.429063 69.589844 29.039062 C 69.059844 29.489062 67.990938 30.380078 67.460938 30.830078 C 74.480937 30.340078 81.530781 30.419609 88.550781 29.849609 C 86.070781 29.239609 83.469375 28.990469 81.109375 27.980469 C 78.169375 26.300469 75.690469 23.960703 72.980469 21.970703 C 76.780469 21.370703 80.940703 20.589688 83.720703 17.679688 C 85.280703 16.109687 85.669219 13.529766 84.199219 11.759766 C 81.379219 8.0697656 76.480547 6.8007031 72.060547 6.4707031 C 62.270547 6.0107031 52.500703 5.3803125 42.720703 4.8203125 z M 57.800781 11.359375 C 63.140781 11.849375 68.569141 11.269219 73.869141 12.199219 C 75.389141 12.379219 75.839844 14.189844 76.839844 15.089844 C 70.789844 17.549844 64.129062 16.029922 57.789062 16.419922 C 57.789062 14.739922 57.790781 13.049375 57.800781 11.359375 z "/>
<path fill="#366fa5" class="prxLogo" d="M 113.51172 7.1367188 C 110.45172 7.1697188 107.39439 7.4067656 104.40039 7.7597656 C 99.070391 8.7097656 93.249687 10.290156 89.679688 14.660156 C 87.419687 17.480156 88.339844 21.750859 91.089844 23.880859 C 95.579844 27.480859 101.4193 28.909063 107.0293 29.539062 C 116.0293 30.209063 125.55953 29.929766 133.76953 25.759766 C 136.46953 24.349766 139.42047 22.229453 139.73047 18.939453 C 139.94047 14.979453 136.28961 12.369609 133.09961 10.849609 C 126.98761 7.9826094 120.24372 7.0637187 113.51172 7.1367188 z M 114.92188 12.492188 C 119.25387 12.565188 123.55237 13.541766 127.10938 16.009766 C 129.31937 17.449766 128.54875 20.340938 126.46875 21.460938 C 120.48875 25.000937 112.95984 24.999297 106.33984 23.529297 C 103.59984 22.699297 99.559609 21.429219 99.599609 17.949219 C 100.92961 14.969219 104.31828 13.920938 107.23828 13.210938 C 109.70828 12.730937 112.32187 12.450188 114.92188 12.492188 z "/>
<path fill="#366fa5" class="prxLogo" d="M193.48 7.47c-.53 5.58 1.66 12.18-2.26 16.893-5.22 5.304-13.16 6.397-20.27 6.383-8.26-.196-17.23-1.416-23.75-6.93-4.1-3.68-1.98-9.736-2.5-14.53-1.72-.556-3.45-1.08-5.18-1.642 6.7-.258 13.4-.61 20.1-.35-1.66.6-3.33 1.186-5 1.772.39 4.194-1.79 10.04 2.46 12.797 5.06 2.922 11.23 3.39 16.94 2.734 3.39-.6 7.33-1.587 9.18-4.804.51-3.946.15-7.946.18-11.922-1.69-.367-3.37-.726-5.04-1.117 6.85-1.187 13.83-1.023 20.75-1.406l-5.61 2.123z"/>
<path fill="#366fa5" class="prxLogo" d="M227.73 3.02c6.98-.42 13.9-1.68 20.9-1.63-3.08 1.56-6.89 2.16-9.01 5.14-3.33 4.11-6.9 8.03-10.49 11.92 3.76 4.12 7.46 8.3 11.01 12.6 2.09 2.59 5.62 3.06 8.46 4.47-6.97.26-13.86-1.21-20.81-1.52.57-.45 1.69-1.36 2.26-1.81-2.23-2.53-4.5-5.02-6.83-7.46-2.28 2.12-4.53 4.27-6.78 6.41.6.5 1.79 1.51 2.38 2.02-7-.61-14.04-.78-21.01-1.71 2.93-.86 6.41-.68 8.78-2.88 3.66-3.23 7.23-6.58 10.66-10.06-3.9-3.76-7.63-7.72-11.93-11.02-3.66-1.98-6.77-1.65-9.45-.95l3.22-1.2c6.61-.63 13.23-1.04 19.85-1.48-.64.49-1.92 1.46-2.57 1.94 2.37 2.09 4.63 4.3 6.86 6.54 2.26-2.49 4.51-5 6.81-7.46l-2.31-1.86z"/>
</svg>

<svg xmlns="http://www.w3.org/2000/svg" width="250" height="38" version="1.1" viewBox="0 0 250 38">
<rect id="backgroundrect" width="100%" height="100%" x="0" y="0" fill="#ffffff" stroke="none"/>
<path fill="#366fa5" d=" M 1.53 1.15 C 10.67 2.05 19.81 2.95 28.96 3.71 C 34.02 4.11 39.53 6.10 42.21 10.70 C 44.04 14.10 42.00 18.13 38.87 19.89 C 31.96 24.33 23.36 22.10 15.66 23.15 C 15.67 26.11 15.68 29.07 15.69 32.03 C 17.32 32.66 18.95 33.29 20.57 33.94 C 14.22 34.69 7.85 35.25 1.49 35.89 C 2.99 34.39 5.82 33.54 5.80 31.09 C 5.89 26.92 6.88 21.79 2.82 19.07 C 3.64 18.76 4.46 18.45 5.28 18.15 C 5.95 14.10 6.04 9.98 5.79 5.89 C 5.83 3.45 3.01 2.64 1.53 1.15 Z" id="P"/>
<path fill="#ffffff" d=" M 15.65 9.63 C 21.15 10.09 26.80 9.66 32.19 10.91 C 34.74 11.63 34.39 15.27 31.86 15.70 C 26.50 16.27 21.07 15.67 15.68 15.86 C 15.67 13.78 15.66 11.71 15.65 9.63 Z" id="P_bg"/>
<path fill="#366fa5" d=" M 42.72 4.82 C 52.50 5.38 62.27 6.01 72.06 6.47 C 76.48 6.80 81.38 8.07 84.20 11.76 C 85.67 13.53 85.28 16.11 83.72 17.68 C 80.94 20.59 76.78 21.37 72.98 21.97 C 75.69 23.96 78.17 26.30 81.11 27.98 C 83.47 28.99 86.07 29.24 88.55 29.85 C 81.53 30.42 74.48 30.34 67.46 30.83 C 67.99 30.38 69.06 29.49 69.59 29.04 C 65.79 26.43 62.87 21.86 57.84 21.74 C 57.80 24.23 57.79 26.73 57.79 29.22 C 59.41 29.79 61.03 30.36 62.64 30.95 C 56.02 31.52 49.37 31.82 42.73 32.16 C 44.39 31.36 46.06 30.58 47.72 29.79 C 47.40 26.17 49.22 21.19 45.09 19.24 C 46.11 18.34 47.88 17.74 47.68 16.06 C 47.87 13.12 47.74 10.18 47.70 7.23 C 46.04 6.43 44.38 5.63 42.72 4.82 Z" id="R"/>
<path fill="#ffffff" d=" M 57.80 11.36 C 63.14 11.85 68.57 11.27 73.87 12.20 C 75.39 12.38 75.84 14.19 76.84 15.09 C 70.79 17.55 64.13 16.03 57.79 16.42 C 57.79 14.74 57.79 13.05 57.80 11.36 Z" id="R_bg"/>
<path fill="#366fa5" d=" M 104.40 7.76 C 113.98 6.63 124.21 6.68 133.10 10.85 C 136.29 12.37 139.94 14.98 139.73 18.94 C 139.42 22.23 136.47 24.35 133.77 25.76 C 125.56 29.93 116.03 30.21 107.03 29.54 C 101.42 28.91 95.58 27.48 91.09 23.88 C 88.34 21.75 87.42 17.48 89.68 14.66 C 93.25 10.29 99.07 8.71 104.40 7.76 Z" id="O"/>
<path fill="#ffffff" d=" M 107.24 13.21 C 113.83 11.93 121.42 12.06 127.11 16.01 C 129.32 17.45 128.55 20.34 126.47 21.46 C 120.49 25.00 112.96 25.00 106.34 23.53 C 103.60 22.70 99.56 21.43 99.60 17.95 C 100.93 14.97 104.32 13.92 107.24 13.21 Z" id="O_bg"/>
<path fill="#366fa5" d=" M 193.48 7.47 C 192.95 13.05 195.14 19.65 191.22 24.363 C 186 29.667 178.06 30.76 170.95 30.746 C 162.69 30.55 153.72 29.33 147.2 23.816 C 143.1 20.136 145.22 14.08 144.7 9.285 C 142.98 8.73 141.25 8.206 139.52 7.644 C 146.22 7.386 152.92 7.035 159.62 7.293 C 157.96 7.894 156.29 8.48 154.62 9.066 C 155.01 13.26 152.83 19.105 157.08 21.863 C 162.14 24.785 168.31 25.254 174.02 24.597 C 177.41 23.996 181.35 23.01 183.2 19.793 C 183.71 15.847 183.35 11.847 183.38 7.871 C 181.69 7.5035 180.01 7.144 178.34 6.7535 C 185.19 5.566 192.17 5.73 199.09 5.347 L 193.48 7.47 Z" class="" id="U" fill-opacity="1"/>
<path fill="#366fa5" d=" M 227.73 3.02 C 234.71 2.6 241.63 1.34 248.63 1.39 C 245.55 2.95 241.74 3.55 239.62 6.53 C 236.29 10.64 232.72 14.56 229.13 18.45 C 232.89 22.57 236.59 26.75 240.14 31.05 C 242.23 33.64 245.76 34.11 248.6 35.52 C 241.63 35.78 234.74 34.31 227.79 34 C 228.36 33.55 229.48 32.64 230.05 32.19 C 227.82 29.66 225.55 27.17 223.22 24.73 C 220.94 26.85 218.69 29 216.44 31.14 C 217.04 31.64 218.23 32.65 218.82 33.16 C 211.82 32.55 204.78 32.38 197.81 31.45 C 200.74 30.59 204.22 30.77 206.59 28.57 C 210.25 25.34 213.82 21.99 217.25 18.51 C 213.35 14.75 209.62 10.79 205.32 7.49 C 201.66 5.51 198.55 5.84 195.87 6.54 L 199.09 5.34 C 205.7 4.71 212.32 4.3 218.94 3.86 C 218.3 4.35 217.02 5.32 216.37 5.8 C 218.74 7.89 221 10.1 223.23 12.34 C 225.49 9.85 227.74 7.34 230.04 4.88 C 229.27 4.26 228.5 3.64 227.73 3.02 Z" class="" id="X" fill-opacity="1"/>
</svg>
